!!!OTL: IM ANFANG WARS AUF ERDEN
!!!ARE: Europa, Mitteleuropa, Deutschland
!!!SCT: F0077
!!!YEM: Copyright 1995, estate of Helmut Schaffrath.
**kern
*ICvox
*Ivox
*M2/4
*k[f#]
*G:
{16b
16cc
=1
8dd
8g
8g
16a
16b
=2
8.cc
16b
8a}
{16b
16cc
=3
8dd
8b
16a
16g
16a
16b
=4
4g
8r}
{16b
16cc
=5
8dd
8g
8g
16a
16b
=6
8.cc
16b
8a}
{16b
16cc
=7
8.dd
16b
16a
16g
16a
16b
=8
4g
4r}
=9
{8a
8a
8b
8b
=10
8.cc
16b
8a}
{8a
=11
8.b
16ee
8dd
8cc#
=12
4dd
8r}
{8dd
=13
8gg
8ff#
8ee
8dd
=14
8.dd
16cc
8b}
{8dd
=15
8ee
8dd
8cc
8b
=16
8.dd
16cc
8b}
{8dd
=17
4gg
4ff#
=18
4ee
4dd}
=19
{8dd
8cc
8b
8a
=20
4a
8g}
==
!!!AGN: Lob - Lied, religioes
!!!ONB: ESAC (Essen Associative Code) Database: FINK
!!!AMT: simple duple
!!!AIN: vox
!!!EED: Helmut Schaffrath
!!!EEV: 1.0
*-
